images/whatsApp-icon-dark.svg

<svg width="50" height="50" viewBox="0 0 50 50" fill="none" xmlns="http://www.w3.org/2000/svg">
<path d="M0 50L4.3 37.1009C2.1181 33.431 0.862069 29.1483 0.862069 24.569C0.862069 11 11.8621 0 25.431 0C39 0 50 11 50 24.569C50 38.1379 39 49.1379 25.431 49.1379C21.3026 49.1379 17.4147 48.1147 14 46.3164L0 50Z" fill="#363739"/>
<path d="M41.106 32.7457C39.9716 30.6018 35.7879 28.15 35.7879 28.15C34.8414 27.6104 33.6992 27.55 33.1595 28.5121C33.1595 28.5121 31.8 30.1423 31.4543 30.3768C29.875 31.4466 28.4121 31.4052 26.9354 29.9285L23.5035 26.4966L20.0716 23.0647C18.5948 21.588 18.5535 20.125 19.6233 18.5457C19.8578 18.2 21.4879 16.8406 21.4879 16.8406C22.45 16.3 22.3897 15.1587 21.85 14.2121C21.85 14.2121 19.3983 10.0285 17.2543 8.894C16.3423 8.41125 15.2224 8.58021 14.4931 9.30952L12.9776 10.825C8.16984 15.6328 10.5371 21.0604 15.3448 25.8681L19.7388 30.2621L24.1328 34.6561C28.9405 39.4638 34.3681 41.8311 39.1759 37.0233L40.6914 35.5078C41.4207 34.7768 41.5888 33.6569 41.106 32.7457Z" fill="#F2F5FE"/>
</svg>

<svg xmlns="http://www.w3.org/2000/svg" width="50" height="50" fill="none" xmlns:v="https://vecta.io/nano"><path d="M0 50l4.3-12.899A24.44 24.44 0 0 1 .862 24.569C.862 11 11.862 0 25.431 0S50 11 50 24.569 39 49.138 25.431 49.138A24.46 24.46 0 0 1 14 46.316L0 50z" fill="#363739"/><path d="M41.106 32.746c-1.134-2.144-5.318-4.596-5.318-4.596-.947-.54-2.089-.6-2.628.362l-1.705 1.865c-1.579 1.07-3.042 1.028-4.519-.448l-3.432-3.432-3.432-3.432c-1.477-1.477-1.518-2.94-.448-4.519.235-.346 1.865-1.705 1.865-1.705.962-.541.902-1.682.362-2.628 0 0-2.452-4.184-4.596-5.318a2.35 2.35 0 0 0-2.761.416l-1.515 1.515c-4.808 4.808-2.44 10.235 2.367 15.043l4.394 4.394 4.394 4.394c4.808 4.808 10.235 7.175 15.043 2.367l1.516-1.515a2.35 2.35 0 0 0 .415-2.762z" fill="#f2f5fe"/></svg>
